X:1
T:Triosonata in a-moll, TWV 42:a1
T:Georg Philipp Telemann (1681 — 1767) Wilhelm Friedrich (1898-1952)
T:Triosonata in a-moll, TWV 42:a1
T:Transcribed for Recorder, Oboe, Fagotto and Cembalo from IMSLP#514822 PDF File
T:Public Domain - Non-PD US, Non-PD EU
T:Public Domain - Non-PD US, Non-PD EU
T:Public Domain - Non-PD US, Non-PD EU
T:Public Domain - Non-PD US, Non-PD EU
T:Public Domain - Non-PD US, Non-PD EU
T:Public Domain - Non-PD US, Non-PD EU
T:Public Domain - Non-PD US, Non-PD EU
C:Georg Philipp Telemann (1681 — 1767)
Z:Public Domain - Non-PD US, Non-PD EU
%%score [ 1 2 3 ] { ( 4 6 7 ) | 5 }
L:1/8
Q:1/4=60
M:4/4
K:C
V:1 treble nm="Alto Recorder" snm="A. Rec."
V:2 treble nm="Oboe" snm="Ob."
V:3 bass nm="Fagotto" snm="Bsn."
V:4 treble nm="Cembalo" snm="Hch."
V:6 treble 
V:7 treble 
V:5 bass 
V:1
"^Àffettuoso" z eAa ^g(b/>a/) (g/>a/)b | e2 z e' d'c' ba | (a^g) z2 z eAa | %3
 ^g(b/>a/) (g/>a/)b e2 z e' | d'c' ba (a^g) z b | c'a ^fa (d/>e/)(f/>g/) (a/>b/)(c'/>a/) | %6
 bg eg (c/>d/)(e/>f/) (g/>a/)(_b/>g/) | a/(f/4e/<f/)g/4 (a/>b/)(c'/>d'/) (b/>a/) g2 b | %8
 (c'/>b/)c'- c'/>e/g/>c'/ (b/4c'/4d'/)f- f/>e/f/>d/ | e/>f/g/>a/ d>c c2 z ^c | %10
 dfad' (g/>a/) _b2 a | dfad' (d'^c') g2- | g/>^c/d/>_b/ e>d d2 z ^f | gdad (b/>a/)g z ^g | %14
 ae/>a/ be/>b/ (c'/>b/)a z a | _b/(a/^g/)a/ c'/(a/g/a/) d'/(a/g/a/) e'/(a/g/a/) | %16
 (f'/>e'/) f'2 (e'/>d'/) (c'/>d'/)(e'/>f'/) b>a | a2 z a _b/a/^g/a/ c'/(a/g/a/) | %18
 d'/(a/^g/a/) e'/(a/g/a/) (f'/>e'/) f'2 (e'/>d'/) | (c'/>b/)c'/>a/ ^g>a ae e2 | e2 d2 e4 |] %21
[M:6/4][Q:3/4=40]"^2. Vivace" (c'/b/a/b/ c')eac' b/a/g/a/ begb | c'a d'a fd bg c'g ec | %23
 (a^gabc'b) (d'^c'd'e'f')a | (^gabc'd')b c'a g3 a | (abc')(^c'd')(^d' e'2) z bbb | %26
 bBBbbb b/a/g/^f/ eg a/b/c'/d'/ | a/g/^f/e/ df g/a/b/a/ (gfgfe^d) | (c'bc'ba^g) (^fe^defd) | %29
 ec' T^f3 e e2 z4 | aa/b/ c'c'/d'/ e'=f/e/ f2 z4 | gg/a/ bb/c'/ d'e/d/ e/g/e/c/ e/g/e/c/ e/g/e/c/ | %32
 d/f/d/B/ d/f/d/B/ d/f/d/B/ c/e/c/A/ c/e/c/A/ c/e/c/A/ | B/A/G/A/ B/c/d/e/ f/g/a/b/ c'2 g'2 g2 | %34
 z2 g'2 g2 z2 (g2 e)^f | g2 d'2 d2 z2 d'2 d2 | z2 (d'2 b)^c' d'2 z4 | %37
 (b/a/g/a/ b)dgb (a/g/^f/g/ a)dfa | bgc'gec a^f bf dB | (g^fgaba) (c'bc'd'e')g | %40
 (^fgabc')a bg Tf3 g | g(d/^c/ d)ddd b(f/e/ f)fff | !tenuto!d'(b/c'/ d')(e'/f'/ e')d' c'2 z4 | %43
 z12 | z2 z aaa aAAaaa | a/g/f/e/ df g/a/_b/a/ g/f/e/d/ ce f/g/a/g/ | (fefed^c) (_babag^f) | %47
 (ed^cdec) d_b Te3 d | (def)^fga ba g2 z2 | z g ce gc' z ^f cf ac' | z b dg bd' z g ^cg ^c'e' | %51
 z a d^f ad' z ^g dg bd' | !tenuto!c'/b/a/b/ c'eac' b/a/g/a/ be^gb | c'ad'afd bgc'gec | %54
 a(^gabc'b) (d'^c'd'e'f')a | (^gabc'd')b c'a Tg3 a | (abc'ba^g) (fefed^c) | (BA^GABG) af' Tb3 a | %58
 a6 z6 |][M:3/2]"^3. Grave"[Q:1/2=50] z12 | z12 | z12 | z12 | b12 | c'12 | f12- | %66
 f4 (e3 d) (e3 c) | d4 (d4 e3) f | e4 z8 | (g3 a) (b3 c') (d'3 e') | ^f4 g4 z4 | e'4 d'4 c'4 | %72
 z4 z4 a4 | z4 (c'3 b) c'4 | z4 (b3 a) b4 | z2 b2 (a3 b) (g3 a) | ^f4 g8 | g4 ^f6 g2 | %78
 (g3 a) (b3 c') (d'3 e') | f4 z2 e2 f3 d | (e3 d) c4 z4 | (G3 A) (_B3 c) (d3 e) | %82
 (f3 g) (a3 b) (c'3 !tenuto!d') | g4 c'8- | c'4 (b3 !tenuto!c') (d'3 !tenuto!e') | a4 d'8- | %86
 d'4 c'3 b c'3 d' | (b3 !tenuto!c') (d'3 !tenuto!c') (b3 a) | g12- | g8 z4 | f4 d6 c2 | %91
 c6 d2 (e3 f) | (g3 a) (b3 c') (d'3 e') | d'6 c'2 (b3 a) | g4 a4 z4 | d'4 b6 c'2 | c'12 |] %97
[M:3/4][Q:1/4=120]"^4. Menuet" c'2 b2 (a^g) | a2 e2 e2 | e'2 d'2 e'2 | Tc'4 b2 | c'2 b2 (a^g) | %102
 a2 e2 e2 | e'2 d'b c'2 |1 b6 :|2 b6 |: c2 g2 a2 | e2 gfed | e4 f2 | gfed c2 | c'2 d'c'ba | %111
 g2 c'b c'2 | f2 Te2 dc | (cdefga) | b2 c'2 a2 | b2 ^ga b2 | e2 a4 | ^g2 b4 | c'2 d'c'ba | %119
 d'2 e'd'c'b | e'2 Tb4 |1 a6 :|2 a6 |:[K:A]"^Trio" e2 f2 e2 | dc de d2 | f2 g2 a2 | Tg3 f e2 | %127
 e'2 a2 bc' | Tc'4 b2 | e'2 a2 bc' | Tc'4 b2 | d'2 Tc'2 b2 | c'>d' e'2 d'2 | c'b a2 g2 | a6 :: %135
 e2 a2 a2 | (ag)(ab)(ga) | b2 a2 g2 | (gf)(ga) f2 | b2 e2 (fg) | Tg4 f2 | b2 e2 fg | Tg4 f2 | %143
 a2 Tg2 f2 | (g3 a/b/) a2 | gf e2 T^d2 | e6 | =g2 (fe)(dc) | (de)(f^g)(ab) | ga Ta3 g/a/ | %150
 b2 e2 e2 | A2 z2 ga | Ta4 g2 | z4 ga | Ta4 g2 | d'2 c'2 b2 | e'4 d'2 | c'b a2 Tg2 |1 a6 :|2 a6 || %160
[K:C][M:3/4]"^Menuet" c'2 b2 (a^g) | a2 e2 e2 | e'2 d'2 e'2 | Tc'4 b2 | c'2 b2 (a^g) | a2 e2 e2 | %166
 e'2 d'b c'2 | b6 | c2 g2 a2 | e2 gfed | e4 f2 | gfed c2 | c'2 d'c'ba | g2 c'b c'2 | f2 Te2 (dc) | %175
 (cdefga) | b2 c'2 a2 | b2 ^ga b2 | e2 a4 | ^g2 b4 | c'2 d'c'ba | d'2 e'd'c'b | e'2 Tb4 | a6 |] %184
V:2
 (e/A/A/A/) (3(c/B/A/) (3(c/B/A/) (f/^G/G/G/) (3(d/c/B/) (3(d/c/B/) | %1
 e/A/A/A/ (3g/f/e/(3g/f/e/ (f/e/)(e/d/) (d/c/)(c/B/) | B2 z2 (e/A/A/A/) (3(c/B/A/) (3(c/B/A/) | %3
 (f/^G/G/G/) (3d/c/B/ (3d/c/B/ (e/A/A/A/) (3c/B/A/ (3c/B/A/ | (f/e/)(e/d/) (d/c/)(c/B/) B2 z2 | %5
 (a/e/e/e/) (3c'/b/a/ (3a/b/c'/ (c'/d/d/d/) (3c'/b/a/ (3a/g/^f/ | %6
 (g/d/d/d/) (3b/a/g/ (3g/a/b/ (b/c/c/c/) (3b/a/g/ (3g/f/e/ | %7
 (f/c/c/c/) (3f/e/d/ (3f/e/d/ (d/G/G/G/) (3f/e/d/ (3f/e/d/ | %8
 (e/G/G/G/) (3(e/d/c/ (3e/)d/c/ (d/G/G/G/) (3B/A/G/ (3B/A/G/ | %9
 (g/>B/)(c/>A/) GB z/ c/c/c/ (3g/f/e/ (3g/f/e/ | %10
 (a/e/e/e/) (3f/e/d/ (3f/e/d/ (_b/^c/c/c/) (3g/f/e/ (3g/f/e/ | %11
 f/A/A/A/ (3f/e/d/ (3f/e/d/ (e/A/A/A/) (3e/d/^c/ (3e/d/c/ | %12
 (d/>_b/)(a/>d/) ^c>d (d/A/A/A/) (3_e/d/=c/ (3e/d/c/ | %13
 (B/G/G/G/) (3^f/e/d/ (3f/e/d/ g/G/G/G/ (3d/c/B/ (3d/c/B/ | %14
 (c/A/A/A/) (3(^g/^f/e/) (3(g/f/e/) f/A/A/A/ (3(c/B/A/) (3(c/B/A/) | %15
 (f/d/d/d/) (a/e/e/e/) (f/d/d/d/) (c'/e/e/e/) | (b/d/d/d/) (3b/a/g/ (3b/a/g/ a/>b/c'/>b/ e^g | %17
 a/A/A/A/ (3e/d/c/ (3e/d/c/ (f/d/d/d/) (a/e/e/e/) | %18
 (f/d/d/d/) (c'/e/e/e/) (b/d/d/d/) (3b/a/g/ (3b/a/g/ | (a/>d/)(e/>f/) B>A A2 z b | a4 ^g4 |] %21
[M:6/4] z12 | z12 | z12 | z12 | z4 z2 (g/^f/e/f/ g)Beg | (^f/e/^d/e/ f)Bdf geaecA | %27
 ^fdgdBG (e^defgf) | (a^gabc'e) (^de^f=gaf) | ge ^d3 e e(e/^f/ g)(g/a/ b)(c/B/ | %30
 c2) z4 =dd/e/ =ff/g/ aB/A/ | B2 z4 z2 g2 G2 | z2 g2 G2 z2 (g2 e) ^f | %33
 g2 z4 e/g/e/c/ e/g/e/c/ e/g/e/c/ | d/g/d/B/ d/g/d/B/ d/g/d/B/ c/e/c/A/ c/e/c/A/ c/e/c/A/ | %35
 B/d/B/G/ B/d/B/G/ B/d/B/G/ A/d/A/^F/ A/d/A/F/ A/d/A/F/ | %36
 G/B/G/E/ G/B/G/E/ G/B/G/E/ ^F/E/D/E/ F/G/A/B/ ^c/d/e/^f/ | g2 z ddd dDDddd | %38
 d/c/B/A/ GB c/d/e/d/ c/B/A/G/ ^FA B/c/d/c/ | (BABAG^F) (ededcB) | (AG^FGAF) Ge A3 G | G2 z8 z2 | %42
 z4 z2 z ^F/G/ GGGG | e(_B/A/ B)BBB g(e/f/ g)(a/_b/ a)g | (f/e/d/e/ f)Adf e/d/^c/d/ eAce | %45
 fdgd _BG ecfc AF | (d^cdefe) (g^fga_bd) | (^cdefge) fd Tc3 d | d2 z4 (ga_b)=b c'd' | %49
 (e/c/B/c/) (e/c/B/c/) (e/c/B/c/) (^f/c/B/c/) (f/c/B/c/) (f/c/B/c/) | %50
 (g/B/A/B/) (g/B/A/B/) (g/B/A/B/) g/(^c/B/c/) (g/c/B/c/) (g/c/B/c/) | %51
 (^f/d/d/d/) (f/d/c/d/) (f/d/c/d/) (^g/d/c/d/) (g/d/c/d/) (g/d/c/d/) | a2 z eee eEEeee | %53
 e/d/c/B/ Ac d/e/f/e/ d/c/B/A/ GB c/d/e/d/ | (cBcBA^G) (fefed^c) | (BA^GABG) Af B3 A | %56
 (A^GABcB) d(^cdefA) | (^GABcdB) cA G3 A | A6 z6 |][M:3/2] (c3 d) (e3 f) (g3 a) | B4 c4 z4 | %61
 a4 g4 f4 | e8 d4 | z4 (f3 e) f4 | z4 (e3 d) e4 | z2 e2 (d3 e) (c3 d) | B4 c8- | c4 B8 | %68
 (c3 d) (e3 f) (g3 a) | B4 z8 | z12 | z12 | z12 | ^f12 | g12 | c12- | c4 (B3 A) (B3 G) | A4 A6 G2 | %78
 G4 z8 | (D3 E) (F3 G) (A3 B) | (c3 d) (e3 f) (g3 a) | _B4 z2 A2 (B3 G) | A4 f8- | %83
 f4 (e3 f) (g3 a) | d4 g8 | g4 (f3 g) (a3 _b) | e6 d2 (e3 ^f) | (G3 A) (B3 c) (d3 e) | %88
 f6 e2 (d3 c) | B4 c4 z4 | d4 B6 c2 | (c3 d) (e3 f) g3 a | (b3 c') (d'3 c') (b3 a) | g12 | g8 z4 | %95
 f4 d6 c2 | c12 |][M:3/4] z6 | z6 | c2 B2 A^G | A2 E2 E2 | e2 d2 e2 | c4 B2 | c2 B^G A2 |1 T^G6 :|2 %105
 ^G6 |: z6 | z6 | c2 g2 a2 | e2 gfed | e4 f2 | gfed c2 | d2 G2 B2 | c6 | z6 | z6 | B2 c2 A2 | %117
 B2 ^GA B2 | E2 A4 | ^G2 B4 | c2 ^G4 |1 A6 :|2 A6 |:[K:A] (c'a)(d'a)(c'a) | (fa)(gb)(ac') | %125
 (dfe)!wedge!d!wedge!c!wedge!d | (efgab)d | c2 z2 e2 | (Ace)age | c2 z2 e2 | (Ace)age | %131
 (3(f=gf) (3(efe) (3(ded) | (cBc)aBg | A2 c2 e2 | A(efgab) :: cecA ^d2 | e2 E2 E2 | %137
 (Ge)(F^d) [Ee]2 | [Bb]2 [B,B]2 [B,B]2 | G2 z2 B2 | E(GBe)^dB | G2 z2 B2 | E(GBe)^dB | caBgAf | %144
 (GFG)eF^d | E2 G2 B2 | eg/f/edcB | ^A2 z2 e2 | B2 z2 B2 | (Ed)c(Bc)A | (EAG)(FED) | C2 A2 Bc | %152
 Tc4 B2 | e2 A2 Bc | d4 c2 | (3(f=gf) (3(efe) (3(ded) | (cBc)aBg | A2 c2 e2 |1 Aceac'e' :|2 A6 || %160
[K:C][M:3/4] z6 | z6 | c2 B2 (A^G) | A2 E2 E2 | e2 d2 e2 | c4 B2 | c2 (B^G) A2 | ^G6 | z6 | z6 | %170
 c2 g2 a2 | e2 gfed | e4 f2 | gfed c2 | d2 G2 B2 | c6 | z6 | z6 | B2 c2 A2 | B2 ^GA B2 | E2 A4 | %181
 ^G2 B4 | c2 ^G4 | A6 |] %184
V:3
 A,, z A,, z B,, z B,, z | C, z ^C, z =D, z D, z | E,2 E,D, C, z C, z | B,, z B,, z C, z ^C, z | %4
 D, z D, z E,2 E,,E, | A,, z A, z ^F, z D, z | G,, z G, z E, z C, z | F, z D, z =G, z G,, z | %8
 G, z G,, z G, z G,,G, | C,/>D,/E,/>F,/ G,G,, C, z A,, z | F, z D, z E, z ^C, z | %11
 D, z D,, z A,,2 ^C,A,, | D,/>E,/F,/>G,/ A,A,, D, z D, z | G, z D, z G,, z E, z | %14
 A, z E, z A,, z C, z | D, z C, z B,, z A,, z | ^G,,2 ^G,E, A,A,,/>D,/ E,E,, | %17
 A,, z C, z D, z C, z | B,, z A,, z ^G,, z ^G,E, | A,A,,/>D,/ E,E,, A,,2 z =G,, | F,,4 E,,4 |] %21
[M:6/4] A,4 A,,2 E,4 E,2 | A,2 F,2 D,2 G,2 E,2 C,2 | F,4 E,2 F,4 D,2 | E,4 ^G,,2 A,,2 E,2 E,,2 | %25
 A,,2 A,G,^F,B, E,4 E,2 | ^D,4 B,,2 E,2 C,2 A,,2 | D,2 B,,2 G,,2 C,4 z2 | A,,4 z2 B,,4 B,2 | %29
 EA,B,A,B,B,, E,2 z F,G,^A, | A,2 z B,C^C [D,D]2 z E,F,^F, | G,2 z A,_B,=B, CC,C,CCC, | %32
 B,B,,B,,B,B,B,, A,A,,A,,A,A,A,, | G,G,,G,,G,G,G,, CC,C,CCC, | B,B,,B,,B,B,B,, A,A,,A,,A,A,A,, | %35
 G,G,,G,,G,G,G,, ^F,^F,,F,,F,F,F,, | E,E,,E,,E,E,E,, D,D,,D,,D,D,D,, | G,,4 G,2 ^F,4 D,2 | %38
 G,2 E,2 C,2 ^F,2 D,2 B,,2 | E,4 z2 C,4 z2 | D,4 D,2 G,C,D,C,D,D,, | G,,2 z2 z2 ^G,,2 z2 z2 | %42
 E,,2 E,2 E,,2 A,,2 z2 z2 | ^C,2 z2 z2 A,,2 A,2 A,,2 | D,4 D,2 ^C,4 A,,2 | %45
 D,2 _B,,2 G,,2 =C,2 A,,2 F,,2 | _B,,4 z2 G,,4 z2 | A,,4 A,2 DG,A,A,,A,A,, | %48
 D,2 z C,=B,,A,, G,,2 G,F,E,D, | C,2 z2 z2 A,,2 z2 z2 | G,,2 z2 z2 E,2 z2 z2 | %51
 D,2 z2 z2 B,,2 z2 z2 | A,,4 A,2 ^G,4 E,2 | A,2 F,2 D,2 =G,2 E,2 C,2 | F,4 z2 D,4 z2 | %55
 E,4 E,2 A,D,E,D,E,E,, | A,,4 z2 D,,4 z2 | E,,4 E,2 A,D, E,2 E,,2 | A,,6 z6 |] %59
[M:3/2] z4 (C,3 D,) (E,3 F,) | G,4 A,4 z4 | F,4 G,4 G,,4 | C,4 C4 G,4 | G,,4 z8 | G,,4 z8 | %65
 A,4 B,4 A,4 | G,4 A,4 G,4 | F,4 G,4 G,,4 | C,,4 (C,3 (D,) (E,3) _F,) | G,4 (G,,3 A,,) (B,,3 C,) | %70
 D,4 E,4 z4 | C,4 D,4 D,,4 | G,,4 G,4 D,4 | D,,4 z8 | D,,4 z8 | E,4 ^F,4 E,4 | (D,4 E,4) D,4 | %77
 C,4 D,4 D,,4 | G,,4 (G,,3 .=A,,) (B,,3 C,) | D,8 D,4 | C,4 (C,3 D,) (E,3 F,) | G,8 G,4 | %82
 F,4 (F,,3 G,,) (A,,3 B,,) | (C,2 B,,2) (C,3 D,) (!arpeggio!E,3 F,) | G,4 (G,,3 .A,,) (B,,3 ^C,) | %85
 ((D,3 ^C,)) (D,3 E,) (F,3 G,) | A,12 | G,12 | (G,,3 A,,) (B,,3 C,) (D,3 E,) | F,4 E,4 z4 | %90
 F,4 G,4 G,,4 | C,4 A,8 | G,12 | (G,,3 A,,) (B,,3 C,) (D,3 E,) | F,4 E,4 z4 | F,4 G,4 G,,4 | %96
 C,12 |][M:3/4] A,2 D,2 E,2 | C,2 B,,2 C,2 | A,,2 B,,2 E,2 | A,,2 A,2 ^G,2 | A,,2 B,,2 E,2 | %102
 A,,2 A,2 ^G,2 | A,2 D,4 |1 E,2 EDCB, :|2 E,2 E,F,E,D, |: C,2 E,2 F,2 | C,4 z2 | C,2 C2 F,2 | %109
 C,4 z2 | C,4 D,2 | E,2 C,D, E,2 | F,2 G,2 G,,2 | C,2 C2 B,A, | ^G,2 =A,2 A,,2 | E,4 ^F,2 | %116
 ^G,2 A,2 A,,2 | E,4 ^G,,2 | A,,4 C,2 | B,,4 D,2 | C,D, E,2 E,,2 |1 A,,2 A,,^G,,A,,B,, :|2 z6 |: %123
[K:A] z6 | z6 | z6 | z6 | z6 | z6 | z6 | z6 | z6 | z6 | z6 | z6 :: z6 | z6 | z6 | z6 | z6 | z6 | %141
 z6 | z6 | z6 | z6 | z6 | z6 | z6 | z6 | z6 | z6 | z6 | z6 | z6 | z6 | z6 | z6 | z6 |1 z6 :|2 z6 || %160
[K:C][M:3/4] A,2 D,2 E,2 | C,2 B,,2 !arpeggio!C,2 | A,,2 B,,2 E,2 | A,,2 A,2 ^G,2 | A,,2 B,,2 E,2 | %165
 A,,2 A,2 ^G,2 | A,2 D,4 | E,2 E,F,E,D, | C,2 E,2 F,2 | C,4 z2 | C,2 C2 F,2 | C,4 z2 | C,4 D,2 | %173
 E,2 C,D, E,2 | F,2 !arpeggio!G,2 G,,2 | C,2 C2 B,A, | ^G,2 =A,2 A,,2 | E,4 ^F,2 | ^G,2 A,2 A,,2 | %179
 E,4 ^G,,2 | A,,4 C,2 | B,,4 D,2 | C,D, E,2 E,,2 | z6 |] %184
V:4
 z [CEA] z [EAc] z [D^GB] z [FGd] | z [EAc] z [=GAe] z [FAd] z [CFA] | %2
 (A ^G2) [FGB] z [EAe] z [EAe] | z [FBd] z [F^Gd] z [EAc] z [=GAe] | z [FAd] z [CFA] A^G z [EGB] | %5
 z [EAc] z [D^Fc] z [DAc] z [DFc] | z [DGB] z [DE_B] z [CGB] z [CGB] | %7
 z [CFA] z [DFA] z [DFB] z [FGd] | z [EGc] z [Gce] z [GBd] z [GBd] | %9
 [Gce]/>[FBd]/[EGc]/>[DAd]/ [DGB]2 z [EGc] z [GA^c] | z [FAd] z [FAd] z [G_B^c] z [GBe] | %11
 z [FAd] z [FAd] d^cec | d/>^c/d [EAc]2 z [FAd] z [D^FA] | z [DG=B] z [D^F=c] z [DGB] z [DE^G] | %14
 z [CEA] z [E^GB] z [EAc] z [EA] | z [DF_B] z [EA] z [D^G=B] z [EAc] | %16
 z [FBd] z [E^Gd] z [EAc]/>[FAd]/ [Ed]2 | z [EAc] z [EA] z [D^FG] z [EA] | %18
 z [DFB] z [EAc] z [FBd] z [E^Gd] | [EAc]/>[FBd]/[EAc]/>[CFA]/ [B,E^G]2 [CEA]2 z [EB] | %20
 [Ec]2 [DB]2 [E^GBe]4 |][M:6/4] [CA]4 [Ec]2 [^GB]4 [Ge]2 | [Ec]2 [Ad]2 [Af]2 [Bd]2 [cg]2 [ce]2 | %23
 [Ad]4 [^Ge]2 [Ad]4 [Af]2 | [^Ge]4 [Be]2 [Ace]2 [GBe]2 [B^g]2 | [Aa]2 c^cd^d e4 g2 | %26
 [B^f]4 [A^d]2 e4 [A=c]2 | =d4 [GB]2 c4 z2 | [Ace]4 z2 [^FB^d]4 [FBd]2 | e2 [^FB^d]4 [GBe]2 z ABe | %30
 [EAc]2 z dea [Adf]2 z GAd | [DGB]2 z ceg [ce]GGeeG | [Gd]DD[Gd][Gd]D [Ac]EE[Ac][Ac]^f | %33
 g[GB][GB]gg[Bd] [ce]gg[ce][ce]g | [dg]GG[dg][dg]G [ce]AA[ce][ce]^f | %35
 a[Bd][Bd]GG[Bd] [Ac]DD[Ad][Ad]D | [Bd]GG[B-d][G-B][G^c] [^Fd]DD[FA][F-A][Fc] | %37
 [DGB]4 [DGB]2 [DA]4 [D^FA]2 | [DGB]2 [CGc]2 [EGc]2 [DAc]2 BA [DG]2 | [B,EG]4 z2 [EGc]4 z2 | %40
 A4 d2 [Bd][ce] d2 [d^f]2 | [Bdg]2 z2 z2 [Bde]2 z2 z2 | [Bd^g]4 [Bdg]2 [cea]2 z2 z2 | %43
 [GAe]2 z2 z2 [GA^c]4 [GAc]2 | [FAd]4 [FAd]2 [EAe]4 [EA^c]2 | %45
 [FAd]2 [DGd]2 [G_Bd]2 [G=ce]2 fe [Acf]2 | [F_Bd]4 z2 [GBe]4 z2 | [A^c]4 [Ac]2 d2 [Ac]4 | %48
 [FAd]2 z ^FGA [G=B]2 _B=B=cd | [Gce]2 z2 z2 [Ac^f]2 z2 z2 | [Bdg]2 z2 z2 [A^cg]2 z2 z2 | %51
 [Ad^f]2 z2 z2 [Bd^g]2 z2 z2 | [cea]4 [Ace]2 [Be]4 [^Ge]2 | [EAc]2 [DAd]2 [FAd]2 [D=GB]2 cB c2 | %54
 [CFA]4 z2 [DFA]4 z2 | [B,E^G]4 [B,EG]2 A2 G4 | [CEA]4 z2 [DFA]4 z2 | [B,E^G]4 [B,EG]2 A2 [B,EG]4 | %58
 [A,CEA]6 z6 |][M:3/2] z4 (E3 F) (G3 A) | [DFB]4 [CEc]4 z4 | [CFA]4 [B,DG]4 [DGB]4 | %62
 [EGc]8 [DGB]4 | [FGB]4 z8 | [EGc]4 z8 | f12 | [Bf]4 [ce]8 | [Acd]4 [GB]8 | [Gce]4 [ee]3 f c4 | %69
 [Bdg]4 G8 | [Ac^f]4 [GBg]4 z4 | [Aeg]4 [Ad^f]4 [cdf]4 | [Bdg]8 [Ad^f]4 | [A=d^f]4 z8 | [Bdg]4 z8 | %75
 [Gc]4 [Ad]4 [Gc]4 | [^Fc]4 [GB]4 !arpeggio![GBd]4 | [GAe]4 [GBd]4 [Ad^f]4 | [Bdg]4 (B3 c) G4 | %79
 [FAd]8 [FAd]4 | [Gce]4 c8 | [DG_B]8 (d3 e) | [Acf]4 f8 | [Gf]4 c4 c4 | [cdg]4 ([Bd]3 c) (d3 e) | %85
 [Ag]4 (f3 g) (a3 _b) | a4 [ca]8 | [dgb]4 [Bd=g]4 [GBd]4 | (B3 c) (d3 e) (f3 e) | [GBd]4 [Gc]4 z4 | %90
 [DAd]4 [GB]8 | [EGc]4 [EAc]4 (e3 ^f) | [Bdg]12 | g8 (([Bf]3 [ce])) | [GBd]4 [Gc]4 z4 | %95
 [DAd]4 [DGB]8 | [CEGc]12 |][M:3/4] [Ec]2 [FB]2 [E^GB]2 | [EA]2 [D^G]2 [EA]2 | [EAc]2 [DFB]2 A^G | %100
 [CEA]4 [EB]2 | [EAc]2 [D^Gd]2 [Ac][GB] | [EAc]4 [EBe]2 | [EAc]2 [DFB]2 [CFA]2 |1 %104
 [B,E^G]4 [EGB]2 :|2 [B,E^G]4 [EGB]2 |: [EGc]2 [CGB]2 [CFA]2 | [CEG]4 z2 | [EGc]2 [CGB]2 [CFA]2 | %109
 [CEG]4 z2 | [EGc]4 [FB]2 | [Gc]4 [Gc]2 | [DAc]2 [EGc]2 [FGB]2 | [EGc]4 z2 | [EB]2 [Ec]2 [Ec]2 | %115
 [E^GB]4 z2 | [EB]2 [Ec]2 [Ec]2 | B2 dc [EB]2 | [EAc]4 [EA]2 | [D^Gd]4 [FGB]2 | [EAc]2 [E^GB]4 |1 %121
 [EAc]6 :|2 C6 |:[K:A] z6 | z6 | z6 | z6 | z6 | z6 | z6 | z6 | z6 | z6 | z6 | z6 :: z6 | z6 | z6 | %138
 z6 | z6 | z6 | z6 | z6 | z6 | z6 | z6 | z6 | z6 | z6 | z6 | z6 | z6 | z6 | z6 | z6 | z6 | z6 | %157
 z6 |1 z6 :|2 z6 ||[K:C][M:3/4] [Ec]2 [FB]2 [E^GB]2 | [EA]2 [D^G]2 [EA]2 | [EAc]2 [DFB]2 A^G | %163
 [CEA]4 [EB]2 | [EAc]2 [D^Gd]2 [Ac][GB] | [EAc]4 [EBe]2 | [EAc]2 [DFB]2 [CFA]2 | [B,E^G]4 [EGB]2 | %168
 [EGc]2 [CGB]2 [CFA]2 | [CEG]4 z2 | [EGc]2 [CGB]2 [CFA]2 | [CEG]4 z2 | [EGc]4 [FB]2 | [Gc]4 [Gc]2 | %174
 [DAc]2 [EGc]2 [FGB]2 | [EGc]4 z2 | [EB]2 [Ec]2 [Ec]2 | [E^GB]4 z2 | [EB]2 [Ec]2 [Ec]2 | %179
 B2 dc [EB]2 | [EAc]4 [EA]2 | [D^Gd]4 [FGB]2 | [EAc]2 [E^GB]4 | C6 |] %184
V:5
 A,, z A,, z B,, z B,, z | C, z ^C, z =D, z D, z | E,2 E,D, C, z C, z | B,, z B,, z C, z ^C, z | %4
 D, z D, z E,2 E,,E, | A,, z A, z ^F, z D, z | G,, z G, z E, z C, z | F, z D, z =G, z G,, z | %8
 G, z G,, z G, z G,,G, | C,/>D,/E,/>F,/ G,G,, C, z A,, z | F, z D, z E, z ^C, z | %11
 D, z D,, z A,,2 ^C,A,, | D,/>E,/F,/>G,/ A,A,, D, z D, z | G, z D, z G,, z E, z | %14
 A, z E, z A,, z C, z | D, z C, z B,, z A,, z | ^G,,2 ^G,E, A,A,,/>D,/ E,E,, | %17
 A,, z C, z D, z C, z | B,, z A,, z ^G,, z ^G,E, | A,A,,/>D,/ E,E,, A,,2 z =G,, | F,,4 E,,4 |] %21
[M:6/4] A,4 A,,2 E,4 E,2 | A,2 F,2 D,2 G,2 E,2 C,2 | F,4 E,2 F,4 D,2 | E,4 ^G,,2 A,,2 E,2 E,,2 | %25
 A,,2 A,G,^F,B, E,4 E,2 | ^D,4 B,,2 E,2 C,2 A,,2 | D,2 B,,2 G,,2 C,4 z2 | A,,4 z2 B,,4 B,2 | %29
 EA,B,A,B,B,, E,2 z F,G,^A, | A,2 z B,C^C [D,D]2 z E,F,^F, | G,2 z A,_B,=B, CC,C,CCC, | %32
 B,B,,B,,B,B,B,, A,A,,A,,A,A,A,, | G,G,,G,,G,G,G,, CC,C,CCC, | B,B,,B,,B,B,B,, A,A,,A,,A,A,A,, | %35
 G,G,,G,,G,G,G,, ^F,^F,,F,,F,F,F,, | E,E,,E,,E,E,E,, D,D,,D,,D,D,D,, | G,,4 G,2 ^F,4 D,2 | %38
 G,2 E,2 C,2 ^F,2 D,2 B,,2 | E,4 z2 C,4 z2 | D,4 D,2 G,C,D,C,D,D,, | G,,2 z2 z2 ^G,,2 z2 z2 | %42
 E,,2 E,2 E,,2 A,,2 z2 z2 | ^C,2 z2 z2 A,,2 A,2 A,,2 | D,4 D,2 ^C,4 A,,2 | %45
 D,2 _B,,2 G,,2 =C,2 A,,2 F,,2 | _B,,4 z2 G,,4 z2 | A,,4 A,2 DG,A,A,,A,A,, | %48
 D,2 z C,=B,,A,, G,,2 G,F,E,D, | C,2 z2 z2 A,,2 z2 z2 | G,,2 z2 z2 E,2 z2 z2 | %51
 D,2 z2 z2 B,,2 z2 z2 | A,,4 A,2 ^G,4 E,2 | A,2 F,2 D,2 =G,2 E,2 C,2 | F,4 z2 D,4 z2 | %55
 E,4 E,2 A,D,E,D,E,E,, | A,,4 z2 D,,4 z2 | E,,4 E,2 A,D, E,2 E,,2 | A,,6 z6 |] %59
[M:3/2] z4 (C,3 D,) (E,3 F,) | G,4 A,4 z4 | F,4 G,4 G,,4 | C,4 C4 G,4 | G,,4 z8 | G,,4 z8 | %65
 A,4 B,4 A,4 | G,4 A,4 G,4 | F,4 G,4 G,,4 | C,,4 (C,3 (D,) (E,3) _F,) | G,4 (G,,3 A,,) (B,,3 C,) | %70
 D,4 E,4 z4 | C,4 D,4 D,,4 | G,,4 G,4 D,4 | D,,4 z8 | D,,4 z8 | E,4 ^F,4 E,4 | (D,4 E,4) D,4 | %77
 C,4 D,4 D,,4 | G,,4 (G,,3 .=A,,) (B,,3 C,) | D,8 D,4 | C,4 (C,3 D,) (E,3 F,) | G,8 G,4 | %82
 F,4 (F,,3 G,,) (A,,3 B,,) | (C,2 B,,2) (C,3 D,) (E,3 F,) | G,4 (G,,3 .A,,) (B,,3 ^C,) | %85
 ((D,3 ^C,)) (D,3 E,) (F,3 G,) | A,12 | G,12 | (G,,3 A,,) (B,,3 C,) (D,3 E,) | F,4 E,4 z4 | %90
 F,4 G,4 G,,4 | C,4 A,8 | G,12 | (G,,3 A,,) (B,,3 C,) (D,3 E,) | F,4 E,4 z4 | F,4 G,4 G,,4 | %96
 C,12 |][M:3/4] A,2 D,2 E,2 | C,2 B,,2 C,2 | A,,2 B,,2 E,2 | A,,2 A,2 ^G,2 | A,,2 B,,2 E,2 | %102
 A,,2 A,2 ^G,2 | A,2 D,4 |1 E,2 EDCB, :|2 E,2 E,F,E,D, |: C,2 E,2 F,2 | C,4 z2 | C,2 C2 F,2 | %109
 C,4 z2 | C,4 D,2 | E,2 C,D, E,2 | F,2 G,2 G,,2 | C,2 C2 B,A, | ^G,2 =A,2 A,,2 | E,4 ^F,2 | %116
 ^G,2 A,2 A,,2 | E,4 ^G,,2 | A,,4 C,2 | B,,4 D,2 | C,D, E,2 E,,2 |1 A,,2 A,,^G,,A,,B,, :|2 A,,6 |: %123
[K:A] z6 | z6 | z6 | z6 | z6 | z6 | z6 | z6 | z6 | z6 | z6 | z6 :: z6 | z6 | z6 | z6 | z6 | z6 | %141
 z6 | z6 | z6 | z6 | z6 | z6 | z6 | z6 | z6 | z6 | z6 | z6 | z6 | z6 | z6 | z6 | z6 |1 z6 :|2 z6 || %160
[K:C][M:3/4] A,2 D,2 E,2 | C,2 B,,2 C,2 | A,,2 B,,2 E,2 | A,,2 A,2 ^G,2 | A,,2 B,,2 E,2 | %165
 A,,2 A,2 ^G,2 | A,2 D,4 | E,2 E,F,E,D, | C,2 E,2 F,2 | C,4 z2 | C,2 C2 F,2 | C,4 z2 | C,4 D,2 | %173
 E,2 C,D, E,2 | F,2 G,2 G,,2 | C,2 C2 B,A, | ^G,2 =A,2 A,,2 | E,4 ^F,2 | ^G,2 A,2 A,,2 | %179
 E,4 ^G,,2 | A,,4 C,2 | B,,4 D,2 | C,D, E,2 E,,2 | A,,6 |] %184
V:6
 x8 | x8 | [B,=E]3 x5 | x8 | x4 [B,=E]2 x2 | x8 | x8 | x8 | x8 | x8 | x8 | x4 [EA]2 [GA]2 | %12
 [G_B][FA]/>[EB]/ x6 | x8 | x8 | x8 | x6 A^G | x8 | x8 | x8 | A4 x4 |][M:6/4] x12 | x12 | x12 | %24
 x12 | x2 A4 G4 B2 | x6 G2 A2 x2 | ^F2 GF =F2 [EG]4 x2 | x12 | [GB][Ac] x8 B2 | z4 e2 x4 A2 | %31
 x4 e2 x6 | x12 | x12 | x12 | x12 | x12 | x12 | x8 [D^F]2 z2 | x12 | [D^F]4 [FA]2 G2 [FA]2 A2 | %41
 x12 | x12 | x12 | x12 | x12 | x12 | E4 E2 [FA][G_B] E4 | x3 D3 D2 G4 | x12 | x12 | x12 | x12 | %53
 x8 [EG]2 [EG]2 | x12 | x6 [CE][DF] [B,E]4 | x12 | x6 [CE][DF] z4 | x12 |][M:3/2] x4 C4 C4 | x12 | %61
 x12 | x12 | x12 | x12 | c4 d4 c4 | x12 | x4 d4 e4 | x8 (g3 a) | x4 (B3 c) (d3 e) | x12 | x12 | %72
 x12 | x12 | x12 | x12 | x12 | x12 | x4 g4 (d3 e) | x12 | x4 (E3 F) (G3 A) | x8 [G_B]4 | %82
 x4 (A3 =B) (c3 =d) | (c3 d) e3 f (g3 a) | x4 g8 | (d2 e) x d8 | [de]4 e4 x4 | x12 | G8 G4 | x12 | %90
 x4 D4 F4 | x12 | x12 | (B3 c) (d3 e) G4 | x12 | x12 | x12 |][M:3/4] x6 | x6 | x4 [B,E]2 | x6 | %101
 x4 E2 | x6 | x6 |1 x6 :|2 x6 |: x6 | x6 | x6 | x6 | x6 | G2 EF x2 | x6 | x6 | x6 | x6 | x6 | %117
 [E^G]4 x2 | x6 | x6 | x6 |1 x6 :|2 x6 |:[K:A] x6 | x6 | x6 | x6 | x6 | x6 | x6 | x6 | x6 | x6 | %133
 x6 | x6 :: x6 | x6 | x6 | x6 | x6 | x6 | x6 | x6 | x6 | x6 | x6 | x6 | x6 | x6 | x6 | x6 | x6 | %152
 x6 | x6 | x6 | x6 | x6 | x6 |1 x6 :|2 x6 ||[K:C][M:3/4] x6 | x6 | x4 [B,E]2 | x6 | x4 E2 | x6 | %166
 x6 | x6 | x6 | x6 | x6 | x6 | x6 | G2 EF x2 | x6 | x6 | x6 | x6 | x6 | [E^G]4 x2 | x6 | x6 | x6 | %183
 x6 |] %184
V:7
 x8 | x8 | x8 | x8 | x8 | x8 | x8 | x8 | x8 | x8 | x8 | x8 | x8 | x8 | x8 | x8 | x8 | x8 | x8 | %19
 x8 | x8 |][M:6/4] x12 | x12 | x12 | x12 | x12 | x12 | x12 | x12 | x12 | x12 | x12 | x12 | x12 | %34
 x12 | x12 | x12 | x12 | x12 | x12 | x12 | x12 | x12 | x12 | x12 | x12 | x12 | x12 | x12 | x12 | %50
 x12 | x12 | x12 | x12 | x12 | x12 | x12 | x12 | x12 |][M:3/2] x12 | x12 | x12 | x12 | x12 | x12 | %65
 x12 | x12 | x12 | x12 | x12 | x12 | x12 | x12 | x12 | x12 | x12 | x12 | x12 | x12 | x12 | x12 | %81
 x12 | x12 | x12 | x12 | x12 | x8 ^f z2 z | x12 | x12 | x12 | x12 | x12 | x12 | x12 | x12 | x12 | %96
 x12 |][M:3/4] x6 | x6 | x6 | x6 | x6 | x6 | x6 |1 x6 :|2 x6 |: x6 | x6 | x6 | x6 | x6 | x6 | x6 | %113
 x6 | x6 | x6 | x6 | x6 | x6 | x6 | x6 |1 x6 :|2 x6 |:[K:A] x6 | x6 | x6 | x6 | x6 | x6 | x6 | x6 | %131
 x6 | x6 | x6 | x6 :: x6 | x6 | x6 | x6 | x6 | x6 | x6 | x6 | x6 | x6 | x6 | x6 | x6 | x6 | x6 | %150
 x6 | x6 | x6 | x6 | x6 | x6 | x6 | x6 |1 x6 :|2 x6 ||[K:C][M:3/4] x6 | x6 | x6 | x6 | x6 | x6 | %166
 x6 | x6 | x6 | x6 | x6 | x6 | x6 | x6 | x6 | x6 | x6 | x6 | x6 | x6 | x6 | x6 | x6 | x6 |] %184

